static/logos/opensea-glyph-color.svg

<svg width="50" height="50" viewBox="0 0 50 50" fill="none" xmlns="http://www.w3.org/2000/svg">
<g clip-path="url(#clip0_1_1801)">
<path d="M50 25C50 38.8063 38.8063 50 25 50C11.1937 50 0 38.8063 0 25C0 11.1937 11.1937 0 25 0C38.8092 0 50 11.1937 50 25Z" fill="#2081E2"/>
<path d="M12.3326 25.84L12.4404 25.6705L18.9439 15.4966C19.039 15.3476 19.2624 15.363 19.3343 15.5248C20.4208 17.9598 21.3583 20.9881 20.9191 22.8734C20.7316 23.6491 20.2179 24.6996 19.64 25.6705C19.5655 25.8118 19.4833 25.9505 19.396 26.084C19.3549 26.1457 19.2855 26.1816 19.211 26.1816H12.5226C12.3428 26.1816 12.2375 25.9864 12.3326 25.84Z" fill="white"/>
<path d="M41.3222 27.7305V29.341C41.3222 29.4334 41.2657 29.5156 41.1835 29.5515C40.6801 29.7673 38.9566 30.5584 38.24 31.555C36.4112 34.1004 35.014 37.74 31.8906 37.74H18.8605C14.2424 37.74 10.5 33.9848 10.5 29.3512V29.2022C10.5 29.0789 10.6001 28.9788 10.7234 28.9788H17.9872C18.131 28.9788 18.2364 29.1123 18.2236 29.2536C18.1722 29.7262 18.2595 30.2091 18.483 30.6483C18.9145 31.5242 19.8083 32.0713 20.774 32.0713H24.37V29.2639H20.8151C20.6328 29.2639 20.525 29.0533 20.6303 28.9043C20.6688 28.8452 20.7124 28.7836 20.7586 28.7143C21.0951 28.2365 21.5754 27.4942 22.0532 26.6492C22.3794 26.079 22.6953 25.4702 22.9496 24.8589C23.001 24.7485 23.0421 24.6354 23.0832 24.525C23.1525 24.3298 23.2245 24.1474 23.2758 23.965C23.3272 23.8109 23.3682 23.6491 23.4093 23.4975C23.5301 22.9787 23.5814 22.4291 23.5814 21.8589C23.5814 21.6354 23.5712 21.4016 23.5506 21.1782C23.5403 20.9342 23.5096 20.6901 23.4787 20.4461C23.4582 20.2304 23.4196 20.0172 23.3785 19.7938C23.3272 19.4676 23.2552 19.1439 23.173 18.8177L23.1448 18.6945C23.0832 18.471 23.0318 18.2578 22.9599 18.0343C22.7569 17.3331 22.5232 16.6499 22.2766 16.0103C22.1867 15.756 22.084 15.5121 21.9813 15.2681C21.8298 14.9008 21.6756 14.5669 21.5343 14.2509C21.4624 14.1071 21.4008 13.976 21.3391 13.8425C21.2698 13.6909 21.1979 13.5394 21.1259 13.3956C21.0746 13.2852 21.0155 13.1824 20.9744 13.0796L20.5352 12.268C20.4736 12.1575 20.5763 12.0265 20.697 12.0599L23.4454 12.8048H23.4531C23.4582 12.8048 23.4608 12.8074 23.4633 12.8074L23.8255 12.9075L24.2236 13.0206L24.37 13.0617V11.4281C24.37 10.6395 25.0018 10 25.7827 10C26.1731 10 26.5276 10.1592 26.7819 10.4186C27.0361 10.6781 27.1954 11.0325 27.1954 11.4281V13.8528L27.4882 13.9349C27.5113 13.9427 27.5344 13.953 27.555 13.9684C27.6269 14.0223 27.7296 14.1019 27.8606 14.1995C27.9633 14.2817 28.0738 14.3819 28.2073 14.4846C28.4719 14.6978 28.7878 14.9726 29.1346 15.2886C29.227 15.3682 29.317 15.4504 29.3992 15.5326C29.8461 15.9487 30.3469 16.4367 30.8247 16.9761C30.9582 17.1277 31.0892 17.2818 31.2228 17.4436C31.3563 17.608 31.4976 17.7698 31.6209 17.9316C31.7827 18.1474 31.9574 18.3708 32.109 18.6045C32.1809 18.715 32.2631 18.828 32.3324 18.9384C32.5276 19.2338 32.6997 19.5395 32.8641 19.8451C32.9335 19.9864 33.0054 20.1405 33.067 20.292C33.2494 20.7004 33.3932 21.1165 33.4856 21.5326C33.5139 21.6225 33.5345 21.7202 33.5448 21.8075V21.8281C33.5756 21.9513 33.5858 22.0823 33.5961 22.2159C33.6372 22.6423 33.6167 23.0686 33.5242 23.4975C33.4857 23.6799 33.4343 23.852 33.3727 24.0344C33.311 24.2091 33.2494 24.3914 33.1698 24.5635C33.0157 24.9205 32.8333 25.2776 32.6175 25.6115C32.5482 25.7348 32.466 25.8657 32.3838 25.989C32.2939 26.12 32.2014 26.2433 32.1192 26.364C32.0062 26.5181 31.8855 26.6799 31.7622 26.8238C31.6517 26.9753 31.5387 27.1269 31.4154 27.2605C31.2433 27.4634 31.079 27.656 30.9069 27.841C30.8042 27.9617 30.6937 28.085 30.5807 28.1954C30.4703 28.3187 30.3572 28.4291 30.2544 28.5319C30.0824 28.704 29.9386 28.8375 29.8178 28.948L29.5353 29.2074C29.4942 29.2433 29.4403 29.2639 29.3838 29.2639H27.1954V32.0713H29.9488C30.5652 32.0713 31.1509 31.8529 31.6235 31.4522C31.7853 31.311 32.4917 30.6997 33.3264 29.7776C33.3547 29.7467 33.3907 29.7236 33.4318 29.7134L41.0371 27.5147C41.1784 27.4736 41.3222 27.5815 41.3222 27.7305Z" fill="white"/>
</g>
<defs>
<clipPath id="clip0_1_1801">
<rect width="50" height="50" fill="white"/>
</clipPath>
</defs>
</svg>

<svg xmlns="http://www.w3.org/2000/svg" width="64" height="64" fill="none" viewBox="0 0 50 50"><g clip-path="url(#a)"><path fill="#2081E2" d="M50 25c0 13.806-11.194 25-25 25S0 38.806 0 25 11.194 0 25 0c13.81 0 25 11.194 25 25Z"/><path fill="#fff" d="m12.333 25.84.107-.17 6.504-10.173a.222.222 0 0 1 .39.028c1.087 2.435 2.024 5.463 1.585 7.348-.187.776-.701 1.827-1.279 2.797a5.13 5.13 0 0 1-.244.414.221.221 0 0 1-.185.098h-6.688a.222.222 0 0 1-.19-.342Z"/><path fill="#fff" d="M41.322 27.73v1.611a.231.231 0 0 1-.139.21c-.503.216-2.226 1.007-2.943 2.004-1.829 2.545-3.226 6.185-6.35 6.185H18.86c-4.618 0-8.36-3.755-8.36-8.389v-.149c0-.123.1-.223.223-.223h7.264c.144 0 .25.133.237.275-.052.472.035.955.259 1.394a2.556 2.556 0 0 0 2.291 1.423h3.596v-2.807h-3.555a.229.229 0 0 1-.185-.36l.129-.19c.336-.477.816-1.22 1.294-2.065.326-.57.642-1.179.897-1.79.051-.11.092-.224.133-.334.07-.195.142-.378.193-.56.051-.154.092-.316.133-.468.121-.518.172-1.068.172-1.638 0-.224-.01-.457-.03-.68a8.802 8.802 0 0 0-.072-.733 7.567 7.567 0 0 0-.1-.652c-.052-.326-.124-.65-.206-.976l-.028-.123c-.062-.224-.113-.437-.185-.66a24.937 24.937 0 0 0-.683-2.025c-.09-.254-.193-.498-.296-.742-.151-.367-.305-.701-.447-1.017a14.338 14.338 0 0 1-.195-.409c-.07-.151-.141-.303-.213-.446-.051-.11-.11-.214-.152-.316l-.439-.812c-.061-.11.041-.242.162-.208l2.748.745h.008l.01.002.363.1.398.114.146.04v-1.633A1.42 1.42 0 0 1 25.783 10c.39 0 .745.16.999.419.254.26.413.614.413 1.01v2.424l.293.082a.237.237 0 0 1 .067.033c.072.054.175.134.306.232.102.082.213.182.346.285.265.213.58.488.928.804.092.08.182.161.264.244.447.416.948.904 1.426 1.443.133.152.264.306.398.468.133.164.275.326.398.488.162.215.336.439.488.673.072.11.154.223.223.333.196.296.368.602.532.907.07.141.141.296.203.447.182.408.326.824.419 1.24.028.09.049.188.059.276v.02c.03.123.04.254.051.388a4.147 4.147 0 0 1-.223 1.818c-.062.175-.124.357-.203.53a7.17 7.17 0 0 1-.553 1.047c-.069.124-.151.255-.233.378-.09.131-.183.254-.265.375a7.852 7.852 0 0 1-.357.46c-.11.151-.223.303-.347.436a16.83 16.83 0 0 1-.508.581c-.103.12-.213.244-.326.354-.11.124-.224.234-.327.337-.172.172-.315.305-.436.416l-.283.26a.23.23 0 0 1-.151.056h-2.189v2.807h2.754c.616 0 1.202-.218 1.674-.619.162-.141.869-.752 1.703-1.674a.213.213 0 0 1 .106-.065l7.605-2.198a.224.224 0 0 1 .285.215Z"/></g><defs><clipPath id="a"><path fill="#fff" d="M0 0h50v50H0z"/></clipPath></defs></svg>
